X: 24047
T: Lone Bush, The
R: hornpipe
M: 4/4
K: Gmajor
(3DEF|:GA (3Bcd (3cBc dB|GA (3Bcd c2 Bc|dg (3fga gf d2|(3Bcd BG FD cA|
GA (3Bcd (3cBc dB|GA (3Bcd c2 Bc|dg fd cB (3DEF|1 AG GF G2 (3DEF:|2 AG GF G2 (3def||
|:gd (3Bcd fd (3Bcd|gd (3Bcd f2 ef|ga fa ge d2|(3fga ge fd BA|GA (3Bcd (3cBc dB|
GA (3Bcd c2 Bc|dg fd cB (3DEF|1 AG GF G2 (3def:|2 AG GF G2 (3DEF||

